dist/images/icons/visa-blue.svg

<svg width="24" height="25" viewBox="0 0 24 25" fill="none" xmlns="http://www.w3.org/2000/svg">
<g clip-path="url(#clip0_126_437)">
<path d="M0.96 4.70557C0.429912 4.70557 0 5.13536 0 5.66557V18.8176C0 19.3478 0.430128 19.7776 0.96 19.7776H23.04C23.5701 19.7776 24 19.3478 24 18.8176V5.66557C24 5.13538 23.5699 4.70557 23.04 4.70557H0.96ZM14.334 9.19731C14.9181 9.19731 15.3862 9.32633 15.6847 9.44631L15.4807 10.7296L15.3457 10.6613C15.0677 10.5413 14.7105 10.4259 14.2177 10.4341C13.6279 10.4341 13.3553 10.6972 13.3553 10.9433C13.3518 11.2207 13.6739 11.4036 14.2005 11.6776C15.0697 12.1002 15.4714 12.6127 15.4658 13.2863C15.4541 14.5155 14.426 15.3098 12.8423 15.3098C12.1666 15.3024 11.5156 15.1593 11.1637 14.9941L11.3753 13.6681L11.5695 13.7626C12.0643 13.9837 12.3847 14.0731 12.9877 14.0731C13.4208 14.0731 13.8856 13.8918 13.8893 13.4948C13.8921 13.2356 13.695 13.0508 13.1085 12.7606C12.537 12.4773 11.7794 12.0027 11.7878 11.1518C11.7967 10.0008 12.8453 9.19731 14.334 9.19731ZM2.12249 9.38557H4.55474C4.88227 9.39795 5.1467 9.50341 5.238 9.85882L5.76226 12.5648C5.76233 12.5651 5.76216 12.566 5.76226 12.5663L5.91974 13.3771L7.39649 9.38557H8.994L6.61949 15.2281L5.02349 15.2296L3.753 10.5151C4.50895 10.9155 5.15254 11.3789 5.52526 12.0166C5.42916 11.8148 5.30254 11.587 5.14051 11.3626C4.95182 11.1012 4.54433 10.7636 4.374 10.6201C3.78048 10.1197 2.97444 9.71564 2.10374 9.50182L2.12249 9.38557ZM9.62926 9.39231H11.1915L10.2142 15.2258H8.652L9.62926 9.39231ZM18.453 9.39231H19.6365L20.8755 15.2258H19.455C19.455 15.2258 19.3141 14.5556 19.2683 14.3513C19.045 14.3513 17.4834 14.3491 17.3077 14.3491C17.2483 14.507 16.9853 15.2258 16.9853 15.2258H15.378L17.6513 9.87682C17.8122 9.49671 18.0865 9.39231 18.453 9.39231ZM18.5693 10.9613C18.4924 11.1783 18.3585 11.5287 18.3675 11.5133C18.3675 11.5133 17.8866 12.7959 17.7608 13.1288L19.0245 13.1281C18.9071 12.5718 18.7896 12.0156 18.672 11.4594L18.5693 10.9614V10.9613Z" fill="#1434CB"/>
</g>
<defs>
<clipPath id="clip0_126_437">
<rect width="24" height="24" fill="white" transform="translate(0 0.241699)"/>
</clipPath>
</defs>
</svg>

<svg width="24" height="25" fill="none" xmlns="http://www.w3.org/2000/svg"><g clip-path="url(#clip0_126_437)"><path d="M.96 4.706a.96.96 0 00-.96.96v13.152c0 .53.43.96.96.96h22.08c.53 0 .96-.43.96-.96V5.666a.96.96 0 00-.96-.96H.96zm13.374 4.491c.584 0 1.052.13 1.35.25l-.203 1.283-.135-.069a2.62 2.62 0 00-1.128-.227c-.59 0-.863.263-.863.51-.003.277.319.46.845.734.87.422 1.271.935 1.266 1.608-.012 1.23-1.04 2.024-2.624 2.024-.675-.008-1.326-.15-1.678-.316l.211-1.326.194.095c.495.22.816.31 1.419.31.433 0 .898-.181.901-.578.003-.26-.194-.444-.78-.734-.572-.284-1.33-.758-1.321-1.61.009-1.15 1.057-1.954 2.546-1.954zm-12.212.189h2.433c.327.012.592.117.683.473l.524 2.706v.001l.158.811 1.476-3.991h1.598l-2.375 5.842-1.596.002-1.27-4.715c.756.4 1.4.864 1.772 1.502a4.227 4.227 0 00-.384-.654c-.19-.262-.597-.6-.767-.743-.594-.5-1.4-.904-2.27-1.118l.018-.116zm7.507.006h1.563l-.978 5.834H8.652l.977-5.834zm8.824 0h1.184l1.238 5.834h-1.42s-.14-.67-.187-.875l-1.96-.002c-.06.158-.323.877-.323.877h-1.607l2.273-5.35c.161-.38.436-.484.802-.484zm.116 1.57c-.077.216-.21.567-.201.551l-.607 1.616h1.264l-.353-1.67-.103-.498z" fill="#1434CB"/></g><defs><clipPath id="clip0_126_437"><path fill="#fff" transform="translate(0 .242)" d="M0 0h24v24H0z"/></clipPath></defs></svg>
